X:1
T:Balvenie Castle
T:Balvenie Castle
T:William Marshall
C:William Marshall
L:1/8
Q:1/8=128
M:4/4
K:Bb
V:1 treble 
V:1
|: B>G F>E D>C B,>d | e<c f>d c/c/c c2 | c/B/A/G/ A/G/F/E/ D>C B,>d | e<c f>d B/B/B B2 | %4
 B>G F>E D>C B,>d | e<c f>d c/c/c c2 | c/B/A/G/ A/G/F/E/ D>C B,>d | e<c f>d B/B/B B2 | %8
 B>f d>f B>f d>f | e>g d>f c/c/c c2 | B>f d>f B>f d>f | e<g f>d B/B/B C2 | B>f d>f B>f d>f | %13
 e>g d>f c/c/c cg/a/ | bg af ge fd | e<g f>d B/B/B B2 :| %16

